apps/documenteditor/main/resources/img/toolbar/2.5x/big/btn-pagenum.svg

<svg width="28" height="28" viewBox="0 0 28 28" fill="none" xmlns="http://www.w3.org/2000/svg">
<path fill-rule="evenodd" clip-rule="evenodd" d="M7 4V24H21V9H17C16.4477 9 16 8.55228 16 8V4L7 4ZM22 24V8L17 3H7C6.44772 3 6 3.44772 6 4V24C6 24.5523 6.44772 25 7 25H21C21.5523 25 22 24.5523 22 24ZM20.5858 8L17 4.41421V8H20.5858ZM12 14H11L10.75 16H9V17H10.625L10.375 19H9V20H10.25L10 22H11L11.25 20H13.25L13 22H14L14.25 20H16V19H14.375L14.625 17H16V16H14.75L15 14H14L13.75 16H11.75L12 14ZM13.625 17L13.375 19H11.375L11.625 17H13.625Z" fill="black"/>
</svg>

<svg xmlns="http://www.w3.org/2000/svg" width="28" height="28" fill="none"><path fill="#000" d="M12 14h-1l-.25 2H9v1h1.625l-.25 2H9v1h1.25L10 22h1l.25-2h2L13 22h1l.25-2H16v-1h-1.625l.25-2H16v-1h-1.25l.25-2h-1l-.25 2h-2l.25-2Zm1.625 3-.25 2h-2l.25-2h2Z"/><path fill="#000" d="M22 24V8l-5-5H7a1 1 0 0 0-1 1v20a1 1 0 0 0 1 1h14a1 1 0 0 0 1-1ZM7 4h9v4a1 1 0 0 0 1 1h4v15H7V4Zm13.586 4H17V4.414L20.586 8Z"/></svg>
